X: 81
T:Running the Goat #4
R:Polka
C:Geoff Panting
N:An original tune from Geoff Panting of the group Ra
Z:Added by alf.
M:2/4
L:1/8
K:Bm
|:BE EA|Bc dc|BE EB|A2 A2|
BE EA|Bc dc|Bc/B/ AF|E2E2:|
|:Be ed|BA A2|Be ed|Bc d2|
Be ed|BA A2|Bc/B/ AF|E2E2:|
